src/containers/site/SiteContactScreen/asset/instagram.svg

<svg width="32" height="32" viewBox="0 0 32 32" fill="none" xmlns="http://www.w3.org/2000/svg">
<path d="M31 16C31 24.2843 24.2843 31 16 31C7.71573 31 1 24.2843 1 16C1 7.71573 7.71573 1 16 1C24.2843 1 31 7.71573 31 16Z" stroke="url(#paint0_linear)" stroke-width="2"/>
<path fill-rule="evenodd" clip-rule="evenodd" d="M16 9.44141C18.1361 9.44141 18.3891 9.44954 19.2326 9.48802C20.0126 9.52362 20.4362 9.65395 20.7181 9.76348C21.0915 9.9086 21.3581 10.082 21.638 10.3619C21.9179 10.6418 22.0913 10.9084 22.2364 11.2818C22.346 11.5637 22.4763 11.9873 22.5119 12.7672C22.5504 13.6108 22.5585 13.8638 22.5585 16C22.5585 18.1361 22.5504 18.3891 22.5119 19.2326C22.4763 20.0126 22.346 20.4362 22.2364 20.7181C22.0913 21.0915 21.9179 21.3581 21.638 21.638C21.3581 21.9179 21.0915 22.0913 20.7181 22.2364C20.4362 22.346 20.0126 22.4763 19.2326 22.5119C18.3892 22.5504 18.1362 22.5585 16 22.5585C13.8637 22.5585 13.6107 22.5504 12.7673 22.5119C11.9873 22.4763 11.5637 22.346 11.2818 22.2364C10.9084 22.0913 10.6418 21.9179 10.3619 21.638C10.082 21.3581 9.9086 21.0915 9.76351 20.7181C9.65395 20.4362 9.52362 20.0126 9.48802 19.2327C9.44954 18.3891 9.44141 18.1361 9.44141 16C9.44141 13.8638 9.44954 13.6108 9.48802 12.7673C9.52362 11.9873 9.65395 11.5637 9.76351 11.2818C9.9086 10.9084 10.082 10.6418 10.3619 10.3619C10.6418 10.082 10.9084 9.9086 11.2818 9.76348C11.5637 9.65395 11.9873 9.52362 12.7672 9.48802C13.6108 9.44954 13.8638 9.44141 16 9.44141ZM16 8C13.8273 8 13.5549 8.00921 12.7016 8.04814C11.8501 8.08701 11.2686 8.22223 10.7597 8.42001C10.2336 8.62445 9.78745 8.898 9.34271 9.34274C8.89797 9.78748 8.62442 10.2336 8.41997 10.7597C8.2222 11.2686 8.08698 11.8501 8.04811 12.7016C8.00918 13.5549 8 13.8273 8 16C8 18.1727 8.00918 18.4451 8.04811 19.2984C8.08698 20.1499 8.2222 20.7314 8.41997 21.2403C8.62442 21.7664 8.89797 22.2125 9.34271 22.6573C9.78745 23.102 10.2336 23.3756 10.7597 23.58C11.2686 23.7778 11.8501 23.913 12.7016 23.9519C13.5549 23.9908 13.8273 24 16 24C18.1727 24 18.4451 23.9908 19.2984 23.9519C20.1499 23.913 20.7314 23.7778 21.2403 23.58C21.7664 23.3756 22.2125 23.102 22.6573 22.6573C23.102 22.2125 23.3755 21.7664 23.58 21.2403C23.7778 20.7314 23.913 20.1499 23.9519 19.2984C23.9908 18.4451 24 18.1727 24 16C24 13.8273 23.9908 13.5549 23.9519 12.7016C23.913 11.8501 23.7778 11.2686 23.58 10.7597C23.3755 10.2336 23.102 9.78748 22.6573 9.34274C22.2125 8.898 21.7664 8.62445 21.2403 8.42001C20.7314 8.22223 20.1499 8.08701 19.2984 8.04814C18.4451 8.00921 18.1727 8 16 8ZM16.0159 11.9048C13.7454 11.9048 11.9048 13.7454 11.9048 16.0159C11.9048 18.2864 13.7454 20.127 16.0159 20.127C18.2864 20.127 20.127 18.2864 20.127 16.0159C20.127 13.7454 18.2864 11.9048 16.0159 11.9048ZM16.0159 18.6845C14.542 18.6845 13.3472 17.4897 13.3472 16.0159C13.3472 14.542 14.542 13.3472 16.0159 13.3472C17.4897 13.3472 18.6845 14.542 18.6845 16.0159C18.6845 17.4897 17.4897 18.6845 16.0159 18.6845ZM21.2065 11.7143C21.2065 12.2403 20.7801 12.6667 20.2542 12.6667C19.7282 12.6667 19.3018 12.2403 19.3018 11.7143C19.3018 11.1883 19.7282 10.762 20.2542 10.762C20.7801 10.762 21.2065 11.1883 21.2065 11.7143Z" fill="url(#paint1_linear)"/>
<defs>
<linearGradient id="paint0_linear" x1="-17.6391" y1="14.0495" x2="12.844" y2="45.2597" gradientUnits="userSpaceOnUse">
<stop stop-color="#FFCC5C"/>
<stop offset="1" stop-color="#FF9E65"/>
</linearGradient>
<linearGradient id="paint1_linear" x1="-0.819534" y1="15.0247" x2="14.422" y2="30.6298" gradientUnits="userSpaceOnUse">
<stop stop-color="#FFCC5C"/>
<stop offset="1" stop-color="#FF9E65"/>
</linearGradient>
</defs>
</svg>

<svg width="32" height="32" fill="none" xmlns="http://www.w3.org/2000/svg"><path d="M31 16c0 8.284-6.716 15-15 15-8.284 0-15-6.716-15-15C1 7.716 7.716 1 16 1c8.284 0 15 6.716 15 15z" stroke="url(#paint0_linear)" stroke-width="2"/><path fill-rule="evenodd" clip-rule="evenodd" d="M16 9.441c2.136 0 2.39.009 3.233.047.78.036 1.203.166 1.485.275.373.146.64.319.92.599.28.28.453.546.598.92.11.282.24.705.276 1.485.038.844.046 1.097.046 3.233s-.008 2.39-.046 3.233c-.036.78-.166 1.203-.276 1.485-.145.373-.318.64-.598.92-.28.28-.547.453-.92.598-.282.11-.705.24-1.485.276-.844.038-1.097.046-3.233.046s-2.39-.008-3.233-.046c-.78-.036-1.203-.166-1.485-.276a2.479 2.479 0 01-.92-.598 2.479 2.479 0 01-.598-.92c-.11-.282-.24-.705-.276-1.485-.038-.844-.047-1.097-.047-3.233s.009-2.39.047-3.233c.036-.78.166-1.203.276-1.485.145-.374.318-.64.598-.92.28-.28.546-.453.92-.599.282-.109.705-.24 1.485-.275.844-.038 1.097-.047 3.233-.047zM16 8c-2.173 0-2.445.01-3.298.048-.852.039-1.433.174-1.942.372a3.921 3.921 0 00-1.417.923c-.445.444-.719.89-.923 1.417-.198.509-.333 1.09-.372 1.942C8.01 13.555 8 13.827 8 16s.01 2.445.048 3.298c.039.852.174 1.433.372 1.942.204.526.478.973.923 1.417.444.445.89.719 1.417.923.509.198 1.09.333 1.942.372.853.039 1.125.048 3.298.048s2.445-.01 3.298-.048c.852-.039 1.433-.174 1.942-.372a3.922 3.922 0 001.417-.923c.445-.445.718-.89.923-1.417.198-.509.333-1.09.372-1.942.039-.853.048-1.125.048-3.298s-.01-2.445-.048-3.298c-.039-.852-.174-1.433-.372-1.942a3.922 3.922 0 00-.923-1.417 3.922 3.922 0 00-1.417-.923c-.509-.198-1.09-.333-1.942-.372C18.445 8.01 18.173 8 16 8zm.016 3.905a4.111 4.111 0 100 8.222 4.111 4.111 0 000-8.222zm0 6.78a2.669 2.669 0 110-5.338 2.669 2.669 0 010 5.338zm5.19-6.97a.952.952 0 11-1.904 0 .952.952 0 011.904 0z" fill="url(#paint1_linear)"/><defs><linearGradient id="paint0_linear" x1="-17.639" y1="14.05" x2="12.844" y2="45.26" gradientUnits="userSpaceOnUse"><stop stop-color="#FFCC5C"/><stop offset="1" stop-color="#FF9E65"/></linearGradient><linearGradient id="paint1_linear" x1="-.82" y1="15.025" x2="14.422" y2="30.63" gradientUnits="userSpaceOnUse"><stop stop-color="#FFCC5C"/><stop offset="1" stop-color="#FF9E65"/></linearGradient></defs></svg>
